assets/logos/eurostar.svg

<svg width="176" height="40" viewBox="0 0 176 40" fill="none" xmlns="http://www.w3.org/2000/svg">
<g clip-path="url(#clip0_89_34)">
<path d="M38.3232 23.2576C38.1568 23.3344 38.1568 23.3856 38.1184 23.5392C37.952 24.1536 37.7856 24.768 37.5424 25.4208C35.0976 32.5632 28.48 37.7856 20.48 37.7856C10.56 37.7856 2.5984 29.8624 2.5984 20.0704C2.5984 10.2784 10.56 2.24 20.48 2.24C28.48 2.24 34.24 7.4624 36.5952 12.6848L22.2336 17.9072C22.0672 17.9456 21.9008 17.8688 21.9008 17.664L20.8 6.1184C20.8 5.9904 20.7232 5.9136 20.5952 5.9136H20.2624C20.1344 5.9136 20.0576 5.9904 20.0576 6.1184L18.9568 17.664C18.9568 17.8688 18.7904 17.9456 18.624 17.9072L8.32 15.0528C8.192 15.0144 8.1152 15.0528 8.0768 15.1808L7.9488 15.5136C7.9104 15.6416 7.9488 15.7184 8.0256 15.7568L16.512 20.0448C16.64 20.0832 16.64 20.2496 16.512 20.288L8.1024 24.5376C8.0256 24.576 7.9744 24.6656 8.0256 24.7808L8.1536 25.1136C8.192 25.2416 8.2816 25.28 8.3968 25.2416L18.6368 22.4256C18.8032 22.3872 18.9696 22.464 18.9696 22.6688L20.0704 34.2144C20.0704 34.3424 20.1472 34.4192 20.2752 34.4192H20.608C20.736 34.4192 20.8128 34.3424 20.8128 34.2144L21.9136 22.6688C21.9136 22.464 22.08 22.3872 22.2464 22.4256L32.576 25.28C32.704 25.3184 32.7808 25.28 32.8192 25.152L32.9472 24.8192C32.9856 24.6912 32.9472 24.6144 32.8704 24.576L24.4224 20.288C24.2944 20.2496 24.2944 20.0832 24.4224 20.0448L37.9136 13.4656C38.08 13.3888 38.1184 13.2224 38.08 13.0176C36.3264 6.3232 29.4272 0 20.0448 0C8.6528 0 0 8.89601 0 20.0448C0 31.1808 8.6528 40 20.0448 40C29.5552 40 36.3648 33.8432 38.656 25.792C38.8992 24.9344 39.1808 23.5904 39.1808 23.0144C39.1808 22.9376 39.104 22.8864 39.0144 22.9376L38.3232 23.2576ZM54.4384 28.16C58.1888 28.16 60.8512 26.2016 62.4768 23.104C62.5152 23.0272 62.5152 22.9376 62.4384 22.8992L62.3104 22.8224C62.2336 22.784 62.1824 22.784 62.1056 22.8608C60.5568 24.3328 58.7648 25.5488 56.4352 25.5488C54.144 25.5488 52.7616 24.5632 52.7616 21.8752C52.7616 21.4272 52.8 20.8896 52.928 20.4032C52.9664 20.2752 53.0048 20.2368 53.1328 20.2368H63.0144C63.0912 20.2368 63.1808 20.2368 63.2576 20.0704C63.7056 19.0848 63.872 18.0352 63.872 17.0496C63.872 14.5152 61.952 12.1472 57.9584 12.1472C51.5968 12.1472 47.6288 16.9984 47.6288 21.9776C47.6288 25.7024 50.0736 28.16 54.4384 28.16ZM53.184 19.008C54.208 15.0144 55.6288 13.1328 57.6768 13.1328C58.944 13.1328 59.6352 13.9136 59.6352 15.1296C59.6352 17.7024 57.8816 19.2128 53.312 19.2128C53.2224 19.2128 53.1328 19.1744 53.184 19.008ZM76.2368 23.424C76.3136 23.4624 76.3648 23.5008 76.2752 23.6288L73.8688 27.584C73.8304 27.6608 73.8688 27.7504 73.9456 27.7504H78.848C78.8864 27.7504 78.976 27.7504 79.0144 27.6224L82.7264 12.7232C82.7648 12.5568 82.6496 12.5568 82.5984 12.5568H78.08C78.0032 12.5568 77.9136 12.5568 77.8752 12.6848L76.0448 20.2368C75.2256 23.5776 73.2672 25.4208 71.1936 25.4208C70.0928 25.4208 69.5552 24.9344 69.5552 23.9872C69.5552 23.5776 69.5936 23.2576 69.7216 22.6816L72.2176 12.7232C72.256 12.5568 72.1408 12.5568 72.0896 12.5568H67.52C67.4816 12.5568 67.392 12.5568 67.3536 12.6848L64.9472 22.3616C64.7808 22.976 64.576 23.7952 64.576 24.6528C64.576 26.6496 65.8816 28.16 68.5312 28.16C71.3856 28.16 73.5104 26.6112 75.2256 24.4096L75.9168 23.5136C76.0448 23.3472 76.0832 23.3472 76.16 23.3856L76.2368 23.424ZM92.4032 15.424C93.2608 15.424 93.8752 15.872 93.8752 16.768C93.8752 17.8304 93.2224 19.3024 91.8784 20.8512C91.8016 20.928 91.8784 21.0176 91.9168 21.056L91.9936 21.1328C92.032 21.1712 92.1216 21.1712 92.2368 21.0944C95.872 18.9312 97.9968 16.8448 97.9968 14.848C97.9968 13.2992 96.8576 12.16 94.9376 12.16C92.5312 12.16 90.9824 13.5936 88.9728 16.2048L87.5008 18.1248C87.3728 18.2912 87.3344 18.2912 87.2576 18.2528L87.1808 18.2144C87.104 18.176 87.0528 18.1376 87.1424 18.0096L90.6112 12.7488C90.6496 12.672 90.6112 12.5824 90.5344 12.5824H85.504C85.4656 12.5824 85.376 12.5824 85.3376 12.7104L81.6256 27.6096C81.5872 27.776 81.664 27.776 81.7536 27.776H86.3232C86.3616 27.776 86.4512 27.776 86.4896 27.648L88.128 20.992C89.0112 17.2544 90.6496 15.424 92.4032 15.424ZM104.115 28.16C110.029 28.16 114.317 23.9104 114.317 18.4832C114.317 14.3616 111.091 12.16 107.584 12.16C101.67 12.16 97.3824 16.4096 97.3824 21.8368C97.3824 25.9584 100.608 28.16 104.115 28.16ZM104.32 27.1744C103.053 27.1744 102.157 26.3168 102.157 24.2816C102.157 22.6432 102.605 20.5696 103.258 18.1632C104.154 14.8224 105.549 13.1456 107.379 13.1456C108.646 13.1456 109.542 14.0032 109.542 16.0384C109.542 17.6768 109.094 19.7504 108.442 22.1568C107.546 25.4976 106.15 27.1744 104.32 27.1744ZM121.126 28.16C126.106 28.16 128.998 25.7536 128.998 22.8992C128.998 21.184 128.102 20.0832 125.402 18.8544L122.995 17.7536C121.446 17.0624 120.832 16.3712 120.832 15.3856C120.832 14.1568 121.894 13.1456 123.725 13.1456C125.402 13.1456 126.259 14.0416 126.259 15.4368C126.259 16.1664 126.016 16.9088 125.85 17.3184C125.811 17.4464 125.888 17.4848 126.016 17.4464L130.266 16.1408C130.394 16.1024 130.47 16.064 130.432 15.936C129.818 13.7344 127.539 12.1856 123.661 12.1856C119.053 12.1856 116.518 14.4256 116.518 17.1648C116.518 18.9952 117.619 20.224 119.91 21.2864L122.317 22.3872C124.314 23.3216 124.8 23.936 124.8 24.8704C124.8 26.176 123.661 27.2 121.37 27.2C119.578 27.2 118.426 26.304 118.426 24.96C118.426 24.1408 118.797 23.4112 119.488 22.72C119.526 22.6432 119.488 22.5536 119.411 22.5536H114.957C114.88 22.5536 114.829 22.5536 114.79 22.6816C114.714 22.9632 114.624 23.3344 114.624 23.9488C114.637 26.4064 116.8 28.16 121.126 28.16ZM140.595 8.3968C140.634 8.2688 140.557 8.2304 140.467 8.2304H140.186C140.109 8.2304 140.019 8.2304 139.942 8.3584C138.022 11.2128 135.616 12.6464 131.866 13.2608L131.622 13.2992C131.29 13.3376 131.29 13.376 131.251 13.504L131.213 13.7088C131.174 13.9136 131.341 13.9136 131.379 13.9136H133.952L131.507 22.3232C131.226 23.3088 131.059 24.1152 131.059 24.8064C131.059 26.9696 132.736 28.1472 134.899 28.1472C138.406 28.1472 140.736 24.6784 141.312 23.8592C141.35 23.7824 141.35 23.6928 141.274 23.6544L141.146 23.5776C141.069 23.5392 141.018 23.5392 140.941 23.616C140.288 24.2688 138.944 25.2544 137.715 25.2544C136.781 25.2544 136.243 24.6784 136.243 23.8208C136.243 23.3728 136.32 22.9248 136.486 22.3872L138.97 13.9008H143.258C143.334 13.9008 143.424 13.9008 143.462 13.7728L143.744 12.7104C143.782 12.544 143.667 12.544 143.616 12.544H139.29L140.595 8.3968ZM156.634 27.7504C156.71 27.7504 156.762 27.7504 156.8 27.6224L158.72 19.9552C158.925 19.0976 159.168 18.0352 159.168 16.896C159.168 14.08 157.043 12.16 152.602 12.16C147.955 12.16 144.602 14.08 144.602 17.1776C144.602 17.792 144.806 18.4448 144.883 18.7264C144.922 18.8544 144.96 18.8544 145.088 18.8032L149.542 17.3696C149.67 17.3312 149.709 17.3312 149.67 17.2032C149.542 16.7936 149.466 16.4224 149.466 15.8976C149.466 14.3104 150.566 13.12 152.41 13.12C154.048 13.12 154.854 14.0544 154.854 15.4112C154.854 15.8976 154.726 16.5504 154.522 17.2928C154.394 17.7792 154.317 17.9072 153.946 18.0224L150.272 19.0976C144.358 20.8128 142.438 21.9136 142.438 24.6912C142.438 26.5728 143.91 28.16 146.931 28.16C149.824 28.16 151.578 26.8928 153.382 24.6144L154.24 23.5136C154.368 23.3472 154.406 23.3472 154.483 23.3856L154.56 23.424C154.637 23.4624 154.688 23.5008 154.598 23.6288L152.192 27.584C152.154 27.6608 152.192 27.7504 152.269 27.7504H156.634ZM153.818 20.2368C153.165 23.1296 151.334 26.3168 149.043 26.3168C148.019 26.3168 147.366 25.7408 147.366 24.5632C147.366 23.2192 148.262 21.7088 149.658 20.928C150.643 20.352 152.435 20.0704 153.702 20.0704C153.779 20.0704 153.869 20.0704 153.818 20.2368ZM170.022 15.424C170.88 15.424 171.494 15.872 171.494 16.768C171.494 17.8304 170.842 19.3024 169.498 20.8512C169.421 20.928 169.498 21.0176 169.536 21.056L169.613 21.1328C169.651 21.1712 169.741 21.1712 169.856 21.0944C173.491 18.9312 175.616 16.8448 175.616 14.848C175.616 13.2992 174.477 12.16 172.557 12.16C170.15 12.16 168.602 13.5936 166.592 16.2048L165.12 18.1248C164.992 18.2912 164.954 18.2912 164.877 18.2528L164.8 18.2144C164.723 18.176 164.672 18.1376 164.762 18.0096L168.23 12.7488C168.269 12.672 168.23 12.5824 168.154 12.5824H163.136C163.098 12.5824 163.008 12.5824 162.97 12.7104L159.258 27.6096C159.219 27.776 159.296 27.776 159.386 27.776H163.955C163.994 27.776 164.083 27.776 164.122 27.648L165.76 20.992C166.643 17.2544 168.269 15.424 170.022 15.424Z" fill="#00286A"/>
</g>
<defs>
<clipPath id="clip0_89_34">
<rect width="176" height="40" fill="white"/>
</clipPath>
</defs>
</svg>

<svg xmlns="http://www.w3.org/2000/svg" width="176" height="40" fill="none"><g clip-path="url(#a)"><path fill="#00286A" d="M38.323 23.258c-.166.076-.166.128-.205.281-.166.615-.332 1.229-.576 1.882-2.444 7.142-9.062 12.365-17.062 12.365-9.92 0-17.882-7.924-17.882-17.716 0-9.792 7.962-17.83 17.882-17.83 8 0 13.76 5.222 16.115 10.445l-14.361 5.222c-.167.039-.333-.038-.333-.243L20.8 6.118c0-.128-.077-.204-.205-.204h-.333c-.128 0-.204.076-.204.204l-1.101 11.546c0 .205-.167.282-.333.243L8.32 15.053c-.128-.039-.205 0-.243.128l-.128.333c-.039.128 0 .204.077.243l8.486 4.288a.125.125 0 0 1 0 .243l-8.41 4.25c-.076.038-.128.128-.076.243l.128.333c.038.128.128.166.243.128l10.24-2.816c.166-.039.333.038.333.243l1.1 11.545c0 .128.077.205.205.205h.333c.128 0 .205-.077.205-.205l1.1-11.545c0-.205.167-.282.333-.243l10.33 2.854c.128.038.205 0 .243-.128l.128-.333c.039-.128 0-.205-.077-.243l-8.448-4.288a.125.125 0 0 1 0-.243l13.492-6.58c.166-.076.204-.243.166-.447C36.326 6.323 29.427 0 20.045 0 8.653 0 0 8.896 0 20.045 0 31.18 8.653 40 20.045 40c9.51 0 16.32-6.157 18.611-14.208.243-.858.525-2.202.525-2.778 0-.076-.077-.128-.167-.076l-.69.32Zm16.115 4.902c3.75 0 6.413-1.958 8.039-5.056.038-.077.038-.166-.039-.205l-.128-.077c-.076-.038-.128-.038-.204.039-1.55 1.472-3.341 2.688-5.67 2.688-2.292 0-3.674-.986-3.674-3.674 0-.448.038-.985.166-1.472.038-.128.077-.166.205-.166h9.881c.077 0 .167 0 .244-.167.448-.985.614-2.035.614-3.02 0-2.535-1.92-4.903-5.914-4.903-6.361 0-10.33 4.851-10.33 9.83 0 3.725 2.446 6.183 6.81 6.183Zm-1.254-9.152c1.024-3.994 2.445-5.875 4.493-5.875 1.267 0 1.958.78 1.958 1.997 0 2.572-1.753 4.083-6.323 4.083-.09 0-.18-.039-.128-.205Zm23.053 4.416c.077.038.128.077.038.205l-2.406 3.955c-.039.077 0 .166.077.166h4.902c.038 0 .128 0 .166-.128l3.712-14.899c.039-.166-.076-.166-.128-.166H78.08c-.077 0-.166 0-.205.128l-1.83 7.552c-.82 3.34-2.778 5.184-4.851 5.184-1.101 0-1.639-.487-1.639-1.434 0-.41.039-.73.167-1.305l2.496-9.959c.038-.166-.077-.166-.128-.166h-4.57c-.038 0-.128 0-.166.128l-2.407 9.677c-.166.614-.371 1.433-.371 2.29 0 1.998 1.306 3.508 3.955 3.508 2.855 0 4.98-1.549 6.695-3.75l.69-.896c.129-.167.167-.167.244-.128l.077.038Zm16.166-8c.858 0 1.472.448 1.472 1.344 0 1.062-.653 2.534-1.997 4.083-.076.077 0 .167.039.205l.077.077c.038.038.128.038.243-.039 3.635-2.163 5.76-4.25 5.76-6.246 0-1.549-1.14-2.688-3.06-2.688-2.406 0-3.955 1.434-5.964 4.045l-1.472 1.92c-.128.166-.167.166-.243.128l-.077-.039c-.077-.038-.128-.076-.039-.204l3.47-5.261c.038-.077 0-.167-.078-.167h-5.03c-.038 0-.128 0-.166.128l-3.712 14.9c-.039.166.038.166.128.166h4.57c.038 0 .127 0 .166-.128l1.638-6.656c.883-3.738 2.522-5.568 4.275-5.568Zm11.712 12.736c5.914 0 10.202-4.25 10.202-9.677 0-4.121-3.226-6.323-6.733-6.323-5.914 0-10.202 4.25-10.202 9.677 0 4.121 3.226 6.323 6.733 6.323Zm.205-.986c-1.267 0-2.163-.857-2.163-2.892 0-1.639.448-3.712 1.101-6.119.896-3.34 2.291-5.017 4.121-5.017 1.267 0 2.163.857 2.163 2.892 0 1.639-.448 3.712-1.1 6.119-.896 3.34-2.292 5.017-4.122 5.017Zm16.806.986c4.98 0 7.872-2.406 7.872-5.26 0-1.716-.896-2.817-3.596-4.046l-2.407-1.1c-1.549-.692-2.163-1.383-2.163-2.368 0-1.23 1.062-2.24 2.893-2.24 1.677 0 2.534.896 2.534 2.29 0 .73-.243 1.473-.409 1.882-.039.128.038.167.166.128l4.25-1.305c.128-.039.204-.077.166-.205-.614-2.202-2.893-3.75-6.771-3.75-4.608 0-7.143 2.24-7.143 4.979 0 1.83 1.101 3.059 3.392 4.121l2.407 1.101c1.997.935 2.483 1.549 2.483 2.483 0 1.306-1.139 2.33-3.43 2.33-1.792 0-2.944-.896-2.944-2.24 0-.82.371-1.549 1.062-2.24.038-.077 0-.166-.077-.166h-4.454c-.077 0-.128 0-.167.128a4.453 4.453 0 0 0-.166 1.267c.013 2.457 2.176 4.211 6.502 4.211Zm19.469-19.763c.039-.128-.038-.167-.128-.167h-.281c-.077 0-.167 0-.244.128-1.92 2.855-4.326 4.288-8.076 4.903l-.244.038c-.332.039-.332.077-.371.205l-.038.205c-.039.205.128.205.166.205h2.573l-2.445 8.41c-.281.985-.448 1.791-.448 2.482 0 2.164 1.677 3.341 3.84 3.341 3.507 0 5.837-3.469 6.413-4.288.038-.077.038-.166-.038-.205l-.128-.076c-.077-.039-.128-.039-.205.038-.653.653-1.997 1.638-3.226 1.638-.934 0-1.472-.576-1.472-1.433 0-.448.077-.896.243-1.434l2.484-8.486h4.288c.076 0 .166 0 .204-.128l.282-1.063c.038-.166-.077-.166-.128-.166h-4.326l1.305-4.147Zm16.039 19.353c.076 0 .128 0 .166-.128l1.92-7.667c.205-.857.448-1.92.448-3.059 0-2.816-2.125-4.736-6.566-4.736-4.647 0-8 1.92-8 5.018 0 .614.204 1.267.281 1.548.039.128.077.128.205.077l4.454-1.433c.128-.039.167-.039.128-.167a4.05 4.05 0 0 1-.204-1.305c0-1.588 1.1-2.778 2.944-2.778 1.638 0 2.444.934 2.444 2.291 0 .487-.128 1.14-.332 1.882-.128.486-.205.614-.576.73l-3.674 1.075c-5.914 1.715-7.834 2.816-7.834 5.593 0 1.882 1.472 3.469 4.493 3.469 2.893 0 4.647-1.267 6.451-3.546l.858-1.1c.128-.167.166-.167.243-.128l.077.038c.077.038.128.077.038.205l-2.406 3.955c-.038.077 0 .166.077.166h4.365Zm-2.816-7.513c-.653 2.893-2.484 6.08-4.775 6.08-1.024 0-1.677-.576-1.677-1.754 0-1.344.896-2.854 2.292-3.635.985-.576 2.777-.858 4.044-.858.077 0 .167 0 .116.167Zm16.204-4.813c.858 0 1.472.448 1.472 1.344 0 1.062-.652 2.534-1.996 4.083-.077.077 0 .167.038.205l.077.077c.038.038.128.038.243-.039 3.635-2.163 5.76-4.25 5.76-6.246 0-1.549-1.139-2.688-3.059-2.688-2.407 0-3.955 1.434-5.965 4.045l-1.472 1.92c-.128.166-.166.166-.243.128l-.077-.039c-.077-.038-.128-.076-.038-.204l3.468-5.261c.039-.077 0-.167-.076-.167h-5.018c-.038 0-.128 0-.166.128l-3.712 14.9c-.039.166.038.166.128.166h4.569c.039 0 .128 0 .167-.128l1.638-6.656c.883-3.738 2.509-5.568 4.262-5.568Z"/></g><defs><clipPath id="a"><path fill="#fff" d="M0 0h176v40H0z"/></clipPath></defs></svg>
